X:1     %Music
T:Poor Murdered Woman
B:Broadwood, L, 1908, English Traditional Songs and Carols, London, Boosey
N:Reprinted by EP Publishing Limited, Rowman & Littlefield, Totowa, New Jersey, 1974
Z:Lucy Broadwood
S:Mr Foster. 1897
F:http://www.folkinfo.org/songs
M:3/4     %Meter
L:1/8     %
K:Dm
HA A |G2 E2 (D3/2C/) |C2 D2 G2 |G2 E2 F2 | D4 
w:It was Han-key the_ squi-er, as I have heard say, 
A2 |A2 c2 A2 |=B2 d2 B2 |G2 A2 c2 |A2 z2 
w:Who rode out a-hunt-ing on one Sat-ur-day. 
G2 |A2 c2 A2 |(=Bc d2) B2 |G2 A2 c2 | A2 z2
w:They hunt-ed all day__ but no-thing they found. 
AA |G2 E2 (D3/2C/) |C2 D2 G2 | G2 E2 F2 | HD4 |]
w:But a poor mur-dered_ wo-man, laid on the cold ground.